**kern	**kern
*part1	*part1
*staff2	*staff1
*I"Piano	*
*clefF4	*clefG2
*k[f#c#g#d#]	*k[f#c#g#d#]
=1	=1
4E	(16g#LL 16b
.	16B
.	16e 16g#
.	16BJJ)
4AA	(16f#LL 16a
.	16c#
.	16f# 16a
.	16c#JJ)
=	=
4BB	16eLL 16g#
.	16B
.	16e 16g#
.	16BJJ
4r	16d#LL 16a
.	16B
.	16d# 16a
.	16BJJ
=	=
[4E	16eLL 16g#
.	16B
.	16e 16g#
.	16BJJ
8E]	8e 8g#
8r	8r
=	=
*^	*
!	!	!LO:TX:b:i:t=dol&colon;
(4G# 4B	2E	(16g#LL 16ee
.	.	16e
.	.	16g# 16ee
.	.	16eJJ)
4A) 4c#	.	(16aLL 16cc#
.	.	16e
.	.	16a 16cc#
.	.	16eJJ)
*v	*v	*
=	=
2E	(16g#LL 16b
.	16B
.	16g# 16b
.	16BJJ)
.	(16eLL 16g#
.	16B
.	16e 16g#
.	16BJJ)
=	=
2BB	(16f#LL 16a
.	16B
.	16f# 16a
.	16BJJ)
.	(16d#LL 16f#
.	16B
.	16d# 16f#
.	16BJJ)
=	=
4E	16eLL 16g#
.	16B
.	16e 16g#
.	16BJJ
4r	16g#LL 16b
.	16B
.	16g# 16b
.	16BJJ
=	=
*-	*-
!!!system-decoration: {(s1,s2)}
